!!!COM: Peter Cornelius
!!!CNT: Deutsch
!!!TXO: Deutsch
!!!OTL: Angedenken
!!!LYR: Cornelius
!!!OPR: Trauer und Trost
!!!OPS: Op.3
!!!ONM: No. 2
!!!ENC: Ben Fuhrman
!!!YOR: CD Sheet Music, Mid-Romantic German Lieder: The Ultimate Collection.
!!!YOR: CD Sheet Music, LLC 2001
!!!ODT: 1854
!!NB: Only vocal melody encoded.
!!NB: First instance of melodic material only encoded.
!!created: 2/1/10 3:45PM
!!proofed and posted: 2/1/10 3:45PM
**kern	**silbe
*clef G2	*
*k[f#c#]	*
*M2/4	*
*MM[Sehr langsam]	*
=1	=1
2r	.
=2	=2
8r	.
{8b	{Von
8.g	stil
16e	-lem
=3	=3
2d	Ort,
=4	=4
8r	.
8a	von
8.f	ku2h-
16e	-ler
=5	=5
2cn	Statt
=6	=6
8r	.
8fn	nahm
8.fn	ich
16d	mit
=7	=7
2fn	fort
=8	=8
8r	.
8e	ein
8.g	E-
16f#	-pheu-
=9	=9
2f#}	-blatt.}
!! Note that this note has no accidental in the score. However, f# would work with the D Major chord in the piano part.
=10	=10
2r	.
=11	=11
8r	.
{8dd	{Ein
8.b-	Re-
16g	-qui-
=12	=12
2fn	-em
=13	=13
8r	.
8ccn	to2nt
8.a-	leis'
16fn	und
=14	=14
2e-	matt,
=15	=15
8r	.
8a-	so
8.a-	oft
16f-	ich
=16	=16
[2a-	nehm'
=17	=17
8a-]	|
8a-	zur
8.a-	Hand
16en	das
=18	=18
[2an	Blatt.
=19	=19
4a]}	|}
4r	.
=20	=20
2r	.
=21	=21
8r	.
{8b	{Wenn
8.g	al-
16e	-ler
=22	=22
2d	Schmerz
=23	=23
8r	.
8a	ge-
8.fn	-en-
16d	-det
=24	=24
2cn	hat,
=25	=25
8r	.
8fn	legt
8.fn	mir
16d	aufs
=26	=26
2fn	Herz
=27	=27
8r	.
8e	das
8.g	E-
16f#	-pheu-
=28	=28
2f#}	-blatt.}
==	==
*-	*-
